Origami/24x24/apps/chrome-store.svg

<svg width="24" height="24" version="1" xmlns="http://www.w3.org/2000/svg">
 <path d="m9 2-1 1v2h-6v15c0 0.554 0.446 1 1 1h18c0.554 0 1-0.446 1-1v-15h-6v-2l-1-1zm0 1h6v2h-6z" style="fill:#cccccc"/>
 <path d="m9 2-1 1v0.5l1-1h6l1 1v-0.5l-1-1h-6zm-7 3v0.5h6v-0.5h-6zm7 0v0.5h6v-0.5h-6zm7 0v0.5h6v-0.5h-6z" style="fill:#ffffff;opacity:.1"/>
 <path d="m9 3v0.5h6v-0.5h-6zm-7 17v0.5c0 0.554 0.446 1 1 1h18c0.554 0 1-0.446 1-1v-0.5c0 0.554-0.446 1-1 1h-18c-0.554 0-1-0.446-1-1z" style="opacity:.2"/>
 <path d="m11.984375 11c-3.5031004 0-6.5663562 1.796472-8.3476562 4.513672-0.0407746 2.639196 1.0360219 4.159927 2.3066406 5.486328h1.546875c-2.6e-6 -0.001976 0-0.003883 0-0.005859 0-2.4917 2.0204402-3.221047 4.4941406-3.498047l8.923828-0.998047c-1.638-3.268-5.008828-5.498047-8.923828-5.498047z" style="fill:#dd4d3e"/>
 <path d="M 3.640625 15.537109 C 2.7123385 16.949 2.1798239 18.572992 2.0488281 20.244141 C 2.1594632 20.676139 2.5325625 21 3 21 L 6.7929688 21 L 3.640625 15.537109 z" style="fill:#109f5b"/>
 <path d="m20.927734 16.501953l-8.792968 0.003906c0.72399 0.01959 1.4513 0.206394 2.125 0.595703 1.152 0.665801 1.044028 1.981194 1.298828 3.183594 0.051972 0.24522 0.132736 0.481894 0.214844 0.714844h5.226562c0.477825 0 0.856757-0.338459 0.957031-0.785156-0.103424-1.291337-0.446501-2.55457-1.029297-3.712891z" style="fill:#ffce41"/>
 <path d="m12 16c-2.77 0-5 2.23-5 5h10c0-2.77-2.23-5-5-5z" style="fill:#ffffff"/>
 <path d="m12 17c-2.216 0-4 1.784-4 4h8c0-2.216-1.784-4-4-4z" style="fill:#4587f3"/>
</svg>

<svg xmlns="http://www.w3.org/2000/svg" width="24" height="24" version="1">
 <path style="fill:#cccccc" d="M 9,2 8,3 8,5 2,5 2,20 c 0,0.554 0.446,1 1,1 l 18,0 c 0.554,0 1,-0.446 1,-1 L 22,5 16,5 16,3 15,2 Z m 0,1 6,0 0,2 -6,0 z"/>
 <path style="opacity:0.1;fill:#ffffff" d="m 9,2 -1,1 0,0.5 1,-1 6,0 1,1 L 16,3 15,2 9,2 Z M 2,5 2,5.5 8,5.5 8,5 2,5 Z m 7,0 0,0.5 6,0 L 15,5 9,5 Z m 7,0 0,0.5 6,0 0,-0.5 -6,0 z"/>
 <path style="opacity:0.2" d="m 9,3 0,0.5 6,0 L 15,3 9,3 Z m -7,17 0,0.5 c 0,0.554 0.446,1 1,1 l 18,0 c 0.554,0 1,-0.446 1,-1 L 22,20 c 0,0.554 -0.446,1 -1,1 L 3,21 C 2.446,21 2,20.554 2,20 Z"/>
 <path style="fill:#dd4d3e" d="M 11.984375 11 C 8.4812746 11 5.4180188 12.796472 3.6367188 15.513672 C 3.5959442 18.152868 4.6727407 19.673599 5.9433594 21 L 7.4902344 21 C 7.4902318 20.998024 7.4902344 20.996117 7.4902344 20.994141 C 7.4902344 18.502441 9.5106746 17.773094 11.984375 17.496094 L 20.908203 16.498047 C 19.270203 13.230047 15.899375 11 11.984375 11 z"/>
 <path style="fill:#109f5b" d="M 3.640625 15.537109 C 2.7123385 16.949 2.1798239 18.572992 2.0488281 20.244141 C 2.1594632 20.676139 2.5325625 21 3 21 L 6.7929688 21 L 3.640625 15.537109 z"/>
 <path style="fill:#ffce41" d="M 20.927734 16.501953 L 12.134766 16.505859 C 12.858756 16.525449 13.586066 16.712253 14.259766 17.101562 C 15.411766 17.767363 15.303794 19.082756 15.558594 20.285156 C 15.610566 20.530376 15.69133 20.76705 15.773438 21 L 21 21 C 21.477825 21 21.856757 20.661541 21.957031 20.214844 C 21.853607 18.923507 21.51053 17.660274 20.927734 16.501953 z"/>
 <path style="fill:#ffffff" d="M 12 16 C 9.23 16 7 18.23 7 21 L 17 21 C 17 18.23 14.77 16 12 16 z"/>
 <path style="fill:#4587f3" d="M 12 17 C 9.784 17 8 18.784 8 21 L 16 21 C 16 18.784 14.216 17 12 17 z"/>
</svg>
